src/assets/icons/multicolor/drag.multicolor.svg

<svg width="120" height="96" fill="none">
  <rect width="69.5" height="79.5" x=".25" y="16.25" fill="#FBFBFB" stroke="#A2A2A2" stroke-width=".5" rx="3.75"/>
  <rect width="52.0536" height="59.5899" x="9.48062" y="26.4427" stroke="#A2A2A2" stroke-dasharray="4" stroke-width=".7" rx="3.65"/>
  <path fill="#A2A2A2" fill-rule="evenodd" d="M28.1371 46.2782h14.773c.8152 0 1.4772.696 1.4772 1.555v16.4155c0 .8561-.662 1.5536-1.4772 1.5536h-14.773c-.8152 0-1.4772-.6975-1.4772-1.5536V47.8332c0-.859.662-1.555 1.4772-1.555zm13.8874 1.1692H29.0214c-.7167 0-1.301.6104-1.301 1.3677v2.6798h15.6058v-2.6798c0-.7573-.5817-1.3677-1.3017-1.3677zM27.7204 63.2658V53.0089h9.6371v11.6246h-8.3361c-.7167 0-1.301-.6132-1.301-1.3677zm11.1072 1.3677h3.1969c.72 0 1.3017-.6132 1.3017-1.3677V53.0089h-4.4986v11.6246z" clip-rule="evenodd" opacity=".722769"/>
  <rect width="69.5" height="79.5" x="50.25" y=".25" fill="#FBFBFB" stroke="#A2A2A2" stroke-width=".5" rx="3.75"/>
  <path fill="#093971" fill-rule="evenodd" d="M63.5821 22.1052c1.731 0 3.1343-1.4138 3.1343-3.1579 0-1.744-1.4033-3.1579-3.1343-3.1579-1.7311 0-3.1343 1.4139-3.1343 3.1579 0 1.7441 1.4032 3.1579 3.1343 3.1579zM63.5821 35.7894c1.731 0 3.1343-1.4138 3.1343-3.1579 0-1.744-1.4033-3.1579-3.1343-3.1579-1.7311 0-3.1343 1.4139-3.1343 3.1579 0 1.7441 1.4032 3.1579 3.1343 3.1579zM63.5821 50.5263c1.731 0 3.1343-1.4138 3.1343-3.1579 0-1.7441-1.4033-3.1579-3.1343-3.1579-1.7311 0-3.1343 1.4138-3.1343 3.1579 0 1.7441 1.4032 3.1579 3.1343 3.1579zM63.5821 64.2103c1.731 0 3.1343-1.4139 3.1343-3.1579 0-1.7441-1.4033-3.1579-3.1343-3.1579-1.7311 0-3.1343 1.4138-3.1343 3.1579 0 1.744 1.4032 3.1579 3.1343 3.1579z" clip-rule="evenodd"/>
  <path fill="#A2A2A2" fill-rule="evenodd" d="M74.5522 19.4735h35.5228-35.5228z" clip-rule="evenodd"/>
  <path stroke="#A2A2A2" stroke-linecap="square" d="M74.5522 19.4735h35.5228"/>
  <path fill="#A2A2A2" fill-rule="evenodd" d="M74.5522 33.1579h35.5228-35.5228z" clip-rule="evenodd"/>
  <path stroke="#A2A2A2" stroke-linecap="square" d="M74.5522 33.1579h35.5228"/>
  <path fill="#A2A2A2" fill-rule="evenodd" d="M74.5522 47.8947h35.5228-35.5228z" clip-rule="evenodd"/>
  <path stroke="#A2A2A2" stroke-linecap="square" d="M74.5522 47.8947h35.5228"/>
  <path fill="#A2A2A2" fill-rule="evenodd" d="M74.5522 61.5789h35.5228-35.5228z" clip-rule="evenodd"/>
  <path stroke="#A2A2A2" stroke-linecap="square" d="M74.5522 61.5789h35.5228"/>
</svg>

<svg width="120" height="96" viewBox="0 0 120 96" fill="none" xmlns="http://www.w3.org/2000/svg">
<rect x="0.25" y="16.25" width="69.5" height="79.5" rx="3.75" fill="#FBFBFB" stroke="#A2A2A2" stroke-width="0.5"/>
<rect x="9.48062" y="26.4427" width="52.0536" height="59.5899" rx="3.65" stroke="#A2A2A2" stroke-width="0.7" stroke-dasharray="4"/>
<g opacity="0.722769">
<path fill-rule="evenodd" clip-rule="evenodd" d="M28.1371 46.2782H42.9101C43.7253 46.2782 44.3873 46.9742 44.3873 47.8332V64.2487C44.3873 65.1048 43.7253 65.8023 42.9101 65.8023H28.1371C27.3219 65.8023 26.6599 65.1048 26.6599 64.2487V47.8332C26.6599 46.9742 27.3219 46.2782 28.1371 46.2782ZM42.0245 47.4474H29.0214C28.3047 47.4474 27.7204 48.0578 27.7204 48.8151V51.4949H43.3262V48.8151C43.3262 48.0578 42.7445 47.4474 42.0245 47.4474ZM27.7204 63.2658V53.0089H37.3575V64.6335H29.0214C28.3047 64.6335 27.7204 64.0203 27.7204 63.2658ZM38.8276 64.6335H42.0245C42.7445 64.6335 43.3262 64.0203 43.3262 63.2658V53.0089H38.8276V64.6335Z" fill="#A2A2A2"/>
</g>
<rect x="50.25" y="0.25" width="69.5" height="79.5" rx="3.75" fill="#FBFBFB" stroke="#A2A2A2" stroke-width="0.5"/>
<path fill-rule="evenodd" clip-rule="evenodd" d="M63.5821 22.1052C65.3131 22.1052 66.7164 20.6914 66.7164 18.9473C66.7164 17.2033 65.3131 15.7894 63.5821 15.7894C61.851 15.7894 60.4478 17.2033 60.4478 18.9473C60.4478 20.6914 61.851 22.1052 63.5821 22.1052Z" fill="#093971"/>
<path fill-rule="evenodd" clip-rule="evenodd" d="M63.5821 35.7894C65.3131 35.7894 66.7164 34.3756 66.7164 32.6315C66.7164 30.8875 65.3131 29.4736 63.5821 29.4736C61.851 29.4736 60.4478 30.8875 60.4478 32.6315C60.4478 34.3756 61.851 35.7894 63.5821 35.7894Z" fill="#093971"/>
<path fill-rule="evenodd" clip-rule="evenodd" d="M63.5821 50.5263C65.3131 50.5263 66.7164 49.1125 66.7164 47.3684C66.7164 45.6243 65.3131 44.2105 63.5821 44.2105C61.851 44.2105 60.4478 45.6243 60.4478 47.3684C60.4478 49.1125 61.851 50.5263 63.5821 50.5263Z" fill="#093971"/>
<path fill-rule="evenodd" clip-rule="evenodd" d="M63.5821 64.2103C65.3131 64.2103 66.7164 62.7964 66.7164 61.0524C66.7164 59.3083 65.3131 57.8945 63.5821 57.8945C61.851 57.8945 60.4478 59.3083 60.4478 61.0524C60.4478 62.7964 61.851 64.2103 63.5821 64.2103Z" fill="#093971"/>
<path fill-rule="evenodd" clip-rule="evenodd" d="M74.5522 19.4735H110.075H74.5522Z" fill="#A2A2A2"/>
<path d="M74.5522 19.4735H110.075" stroke="#A2A2A2" stroke-linecap="square"/>
<path fill-rule="evenodd" clip-rule="evenodd" d="M74.5522 33.1579H110.075H74.5522Z" fill="#A2A2A2"/>
<path d="M74.5522 33.1579H110.075" stroke="#A2A2A2" stroke-linecap="square"/>
<path fill-rule="evenodd" clip-rule="evenodd" d="M74.5522 47.8947H110.075H74.5522Z" fill="#A2A2A2"/>
<path d="M74.5522 47.8947H110.075" stroke="#A2A2A2" stroke-linecap="square"/>
<path fill-rule="evenodd" clip-rule="evenodd" d="M74.5522 61.5789H110.075H74.5522Z" fill="#A2A2A2"/>
<path d="M74.5522 61.5789H110.075" stroke="#A2A2A2" stroke-linecap="square"/>
</svg>
